Origami/16x16/apps/emerald-theme-manager-icon.svg

<svg xmlns="http://www.w3.org/2000/svg" width="16" height="16" version="1">
 <path style="fill:#87d53c" d="M 4.3428356,1.0000003 C 4.0901534,0.99998901 3.8487309,1.1067196 3.6758676,1.2948606 L 0.24727637,5.3283272 C -0.07225339,5.6762954 -0.08341926,6.2141988 0.2213838,6.5756727 l 7.0857548,8.1000143 c 0.3647945,0.432418 1.0209274,0.432418 1.3857219,0 L 15.778615,6.5756727 C 16.083419,6.2141994 16.072254,5.6762961 15.752725,5.3283272 L 12.324133,1.2948606 C 12.151269,1.1067189 11.909845,0.99998816 11.657162,1.0000003 l -3.6571628,0 z"/>
 <path style="fill:#87d53c" d="m 8,1.0000001 3.809523,4.7894736 -7.6190468,-1e-7 z"/>
 <path style="opacity:0.2" d="M 7.9999998,15 12,6 4.0000001,6 Z"/>
 <path style="opacity:0.2" d="M 4.34375 1 C 4.0910678 0.99998871 3.8486445 1.1067809 3.6757812 1.2949219 L 0.24804688 5.328125 C 0.075542805 5.5159821 -0.00063035648 5.7590738 0.0078125 6 L 15.992188 6 C 16.000631 5.7590738 15.924457 5.5159825 15.751953 5.328125 L 12.324219 1.2949219 C 12.151355 1.1067802 11.908933 0.99998786 11.65625 1 L 4.34375 1 z"/>
 <path style="fill:#87d53c" d="M 8,1 12,6 4.0000003,6 Z"/>
</svg>

<svg width="16" height="16" version="1" xmlns="http://www.w3.org/2000/svg">
 <path d="m4.3428356 1.0000003c-0.2526822-1.129e-5 -0.4941047 0.1067193-0.666968 0.2948603l-3.4285912 4.0334666c-0.31952976 0.3479682-0.33069563 0.8858716-0.02589257 1.2473455l7.0857548 8.1000143c0.3647945 0.432418 1.0209274 0.432418 1.3857219 0l7.0857545-8.1000143c0.304804-0.3614733 0.293639-0.8993766-0.02589-1.2473455l-3.428592-4.0334666c-0.172864-0.1881417-0.414288-0.29487244-0.666971-0.2948603h-3.6571628z" style="fill:#87d53c"/>
 <path d="m8 1.0000001 3.809523 4.7894736-7.6190468-1e-7z" style="fill:#87d53c"/>
 <path d="M 7.9999998,15 12,6 4.0000001,6 Z" style="opacity:.2"/>
 <path d="m4.34375 1c-0.2526822-1.129e-5 -0.4951055 0.1067809-0.6679688 0.2949219l-3.4277343 4.0332031c-0.17250408 0.1878571-0.24867724 0.4309488-0.24023438 0.671875h15.984376c0.008443-0.2409262-0.067731-0.4840175-0.240235-0.671875l-3.427734-4.0332031c-0.172864-0.1881417-0.415286-0.29493404-0.667969-0.2949219h-7.3125z" style="opacity:.2"/>
 <path d="m8 1 4 5h-7.9999997z" style="fill:#87d53c"/>
</svg>
